view/atlasmaker/src/html/img/ruler.svg

<svg height="1536" width="1536" xmlns="http://www.w3.org/2000/svg"><path d="m2.7402858 1161.1464 372.1132742 372.1133 1158.40614-1158.40612-372.1132-372.1132731-116.5903 116.5903031 217.4287 217.42882-48.4611 48.46122-217.42888-217.42882-132.91042 132.91041 128.92134 128.92133-48.48335 48.4833-128.9213-128.92132-132.90007 132.90006 128.92132 128.92132-48.48327 48.48329-128.92133-128.92132-132.91043 132.91042 217.42882 217.42882-48.46115 48.46115-217.42882-217.42881-132.91045 132.91045 128.92132 128.92129-48.48462 48.48468-128.92132-128.92135-132.89742 132.89735 128.92133 128.9214-48.48462 48.4846-128.921318-128.9213z" fill="#fff" stroke="#fff" stroke-dasharray="5.751652 5.751652" stroke-width=".958609"/></svg>

<?xml version="1.0" encoding="UTF-8" standalone="no"?>
<svg
   xmlns:dc="http://purl.org/dc/elements/1.1/"
   xmlns:cc="http://creativecommons.org/ns#"
   xmlns:rdf="http://www.w3.org/1999/02/22-rdf-syntax-ns#"
   xmlns:svg="http://www.w3.org/2000/svg"
   xmlns="http://www.w3.org/2000/svg"
   xmlns:sodipodi="http://sodipodi.sourceforge.net/DTD/sodipodi-0.dtd"
   xmlns:inkscape="http://www.inkscape.org/namespaces/inkscape"
   id="svg2"
   version="1.1"
   inkscape:version="0.91 r13725"
   sodipodi:docname="ruler.svg"
   width="1536"
   height="1536">
  <metadata
     id="metadata10">
    <rdf:RDF>
      <cc:Work
         rdf:about="">
        <dc:format>image/svg+xml</dc:format>
        <dc:type
           rdf:resource="http://purl.org/dc/dcmitype/StillImage" />
        <dc:title />
      </cc:Work>
    </rdf:RDF>
  </metadata>
  <defs
     id="defs8" />
  <sodipodi:namedview
     pagecolor="#ffffff"
     bordercolor="#666666"
     borderopacity="1"
     objecttolerance="10"
     gridtolerance="10"
     guidetolerance="10"
     inkscape:pageopacity="0"
     inkscape:pageshadow="2"
     inkscape:window-width="1672"
     inkscape:window-height="1132"
     id="namedview6"
     showgrid="false"
     fit-margin-top="0"
     fit-margin-left="0"
     fit-margin-right="0"
     fit-margin-bottom="0"
     inkscape:zoom="0.43706558"
     inkscape:cx="865.05289"
     inkscape:cy="1003.9292"
     inkscape:window-x="58"
     inkscape:window-y="0"
     inkscape:window-maximized="0"
     inkscape:current-layer="svg2" />
  <path
     style="color:#000000;clip-rule:nonzero;display:inline;overflow:visible;visibility:visible;opacity:1;isolation:auto;mix-blend-mode:normal;color-interpolation:sRGB;color-interpolation-filters:linearRGB;solid-color:#000000;solid-opacity:1;fill:#ffffff;fill-opacity:1;fill-rule:nonzero;stroke:#ffffff;stroke-width:0.95860869;stroke-linecap:butt;stroke-linejoin:miter;stroke-miterlimit:4;stroke-dasharray:5.75165231, 5.75165231;stroke-dashoffset:0;stroke-opacity:1;marker:none;color-rendering:auto;image-rendering:auto;shape-rendering:auto;text-rendering:auto;enable-background:accumulate"
     d="M 2.7402858,1161.1464 374.85356,1533.2597 1533.2597,374.85358 1161.1465,2.7403069 1044.5562,119.33061 1261.9849,336.75943 1213.5238,385.22065 996.09492,167.79183 863.1845,300.70224 992.10584,429.62357 943.62249,478.10687 814.70119,349.18555 681.80112,482.08561 810.72244,611.00693 762.23917,659.49022 633.31784,530.5689 500.40741,663.47932 717.83623,880.90814 669.37508,929.36929 451.94626,711.94048 319.03581,844.85093 447.95713,973.77222 399.47251,1022.2569 270.55119,893.33555 137.65377,1026.2329 266.5751,1155.1543 218.09048,1203.6389 89.169162,1074.7176 2.7402858,1161.1464 Z"
     id="rect4137"
     inkscape:connector-curvature="0" />
</svg>
